src/assets/svg/how-to-convert.svg

<svg fill="none" height="40" viewBox="0 0 120 40" width="120" xmlns="http://www.w3.org/2000/svg" xmlns:xlink="http://www.w3.org/1999/xlink"><clipPath id="a"><path d="m0 0h119.664v40h-119.664z"/></clipPath><g clip-path="url(#a)"><path d="m110.135.00013h-100.60032c-.3667 0-.729 0-1.09473.002-.30615.002-.60986.00781-.91895.0127-.67149.0079018-1.34139.0669763-2.0039.17671-.66158.112123-1.30243.323506-1.90088.627-.59772.30606-1.14387.70376-1.61865 1.17866-.47727.47357-.87511 1.02095-1.17822 1.62109-.30395.59895-.514709 1.24078-.625 1.90332-.1113391.66171-.1712516 1.33104-.1792 2.002-.00928.3066-.01026.61422-.01515.92086v23.11423c.00489.3105.00587.6113.01515.9219.0079508.671.0678634 1.3403.1792 2.0019.109986.663.320758 1.3052.625 1.9043.30298.5982.70087 1.1434 1.17822 1.6143.47297.477 1.01948.875 1.61865 1.1787.59845.3043 1.23923.517 1.90088.6308.66262.1089 1.33246.168 2.0039.1768.30909.0068.6128.0107.91895.0107.36572.002.72805.002 1.09473.002h100.60032c.359 0 .724 0 1.084-.002.304 0 .617-.0039.922-.0107.67-.0083 1.338-.0674 2-.1768.663-.1146 1.307-.3272 1.908-.6308.598-.3039 1.144-.7018 1.617-1.1787.476-.4727.875-1.0175 1.182-1.6143.302-.5996.51-1.2417.619-1.9043.111-.6617.173-1.3309.185-2.0019.004-.3106.004-.6114.004-.9219.008-.3633.008-.7246.008-1.0938v-20.92864c0-.36621 0-.72949-.008-1.09179 0-.30664 0-.61426-.004-.9209-.012-.67102-.074-1.3402-.185-2.002-.109-.66216-.318-1.30394-.619-1.90332-.618-1.20292-1.596-2.18209-2.799-2.7998-.601-.302753-1.245-.51408-1.908-.627-.661-.1102172-1.33-.1693122-2-.17676-.305-.00488-.618-.01074-.922-.01269-.36-.002-.725-.002-1.084-.002z" fill="#ffd131"/><path d="m8.44291 39.125c-.30468 0-.602-.0039-.90429-.0107-.62621-.0082-1.25097-.0627-1.86914-.1631-.57641-.0993-1.13479-.2839-1.65674-.5479-.51715-.2618-.98884-.605-1.397-1.0166-.41406-.4067-.75878-.8785-1.02051-1.3965-.26461-.5214-.44773-1.0803-.543-1.6572-.102872-.6199-.158532-1.2467-.166496-1.875-.00634-.2109-.01464-.9131-.01464-.9131v-23.10056s.00884-.69141.01469-.89454c.007626-.62732.062962-1.25315.165526-1.87207.09544-.57848.27871-1.13898.54346-1.6621.26077-.51769.60358-.98977 1.01514-1.39795.41111-.41206.88431-.75708 1.40234-1.02247.52075-.26312 1.07808-.44648 1.65332-.54394.6202-.101434 1.24712-.156274 1.87551-.16406l.90232-.01221h102.7686l.913.0127c.623.007399 1.244.06175 1.858.16259.582.09869 1.145.28333 1.671.54785 1.038.53485 1.883 1.38102 2.415 2.41993.261.51951.441 1.07544.536 1.64892.103.624.161 1.25475.173 1.88721.003.2832.003.5874.003.89014.008.375.008.73193.008 1.09179v20.92867c0 .3633 0 .7178-.008 1.0752 0 .3252 0 .6231-.004.9297-.011.6212-.068 1.2407-.171 1.8535-.093.5811-.275 1.1443-.54 1.67-.263.5124-.606.9801-1.015 1.3857-.409.4138-.881.759-1.4 1.0225-.525.266-1.087.4513-1.668.5498-.618.101-1.242.1555-1.869.1631-.293.0068-.599.0107-.897.0107l-1.084.002z" fill="#fff"/><g fill="#000"><path d="m30.3891 15.2687-.0185-5.99852-.9053.00376.0078 2.51366-2.8565.0119-.0077-2.51368-.9053.00376.0186 5.99852.9052-.0038-.0083-2.7026 2.8564-.0119.0083 2.7026zm3.1714-4.7242c-1.3227.0055-2.0361.9489-2.0322 2.2014l.0012.3867c.004 1.2876.7231 2.2074 2.0459 2.2019 1.3183-.0054 2.023-.9312 2.019-2.2188l-.0012-.3911c-.0039-1.2525-.7187-2.1855-2.0327-2.1801zm-.0021.7295c.7515-.0031 1.14.5886 1.1428 1.4763l.0011.3559c.0027.8789-.3778 1.4869-1.1336 1.4901-.7515.0031-1.1445-.6061-1.1472-1.4806l-.0011-.356c-.0027-.8833.3866-1.4825 1.138-1.4857zm8.932-.6875-.8921.0037-.7887 3.5849-.0352.0001-1.0042-3.5774-.8437.0035-.9777 3.5857-.0396.0001-.8108-3.5782-.8965.0037 1.2184 4.6269.9272-.0039.9912-3.4846.022-.0001 1.0127 3.4763.9272-.0039zm2.9092-.0121-.6416.0027.0022.7207.6328-.0026.0081 2.6103c.0028.9228.2809 1.3348 1.3972 1.3301.1801-.0007.3559-.019.4305-.0325l-.0021-.69c-.0615.0047-.1318.0094-.2109.0097-.5405.0023-.7299-.1376-.7316-.6649l-.0079-2.5664.9097-.0038-.0023-.7207-.9096.0038-.0036-1.14259-.8745.00363zm4.6755-.0985c-1.3228.0055-2.0362.9489-2.0323 2.2013l.0012.3867c.004 1.2876.7231 2.2075 2.0459 2.202 1.3183-.0055 2.023-.9313 2.019-2.2189l-.0012-.3911c-.0039-1.2524-.7187-2.1855-2.0326-2.18zm-.0022.7295c.7515-.0031 1.14.5885 1.1428 1.4762l.0011.356c.0027.8789-.3778 1.4869-1.1336 1.49-.7515.0032-1.1445-.6061-1.1472-1.4806l-.0011-.3559c-.0027-.8833.3866-1.4826 1.138-1.4857zm4.7386 1.8392c.004 1.2744.7275 2.1986 1.9756 2.1935 1.0722-.0045 1.7077-.5609 1.8368-1.4359l-.8481.0035c-.0736.3651-.3802.674-.9339.6763-.6944.0028-1.1356-.5578-1.1383-1.4367l-.0013-.4131c-.0027-.8877.4131-1.43 1.125-1.4329.4746-.002.8229.3437.912.7345l.8525-.0036c-.0419-.7688-.7121-1.4868-1.8195-1.4822-1.2349.0052-1.966.9047-1.9621 2.1659zm6.6541-2.6161c-1.3228.0055-2.0362.9489-2.0323 2.2014l.0012.3867c.004 1.2876.7231 2.2074 2.0459 2.2019 1.3183-.0054 2.023-.9312 2.019-2.2188l-.0012-.3911c-.0039-1.2525-.7187-2.1855-2.0326-2.1801zm-.0022.7295c.7515-.0031 1.14.5886 1.1428 1.4763l.0011.3559c.0027.8789-.3777 1.4869-1.1336 1.4901-.7514.0031-1.1444-.6061-1.1471-1.4806l-.0011-.356c-.0028-.8833.3865-1.4825 1.1379-1.4857zm3.1412 3.9685.8833-.0037-.0086-2.7861c-.0019-.6197.3349-1.1396 1.0644-1.1427.6152-.0025 1.0601.356 1.0625 1.1119l.0087 2.808.8832-.0036-.0091-2.9751c-.0035-1.1294-.6953-1.7286-1.6445-1.7246-.7603.0031-1.1853.4092-1.347.7131l-.0307.0001-.002-.6328-.8745.0036zm6.06-.0252.9756-.0041 1.6292-4.6386-.9008.0037-1.2017 3.6481-.0307.0001-1.1363-3.6383-.9404.0039zm5.0627.058c1.0987-.0045 1.7032-.6355 1.8546-1.392l-.8569.0036c-.1306.4136-.4725.6699-.9823.672-.6987.0029-1.1311-.549-1.1336-1.3707l-.0003-.0967 3.0278-.0126-.0014-.4395c-.004-1.2919-.7318-2.159-1.9578-2.1539-1.2217.005-1.9574.8562-1.9534 2.1263l.0015.4877c.0042 1.3492.7758 2.1809 2.0018 2.1758zm-1.1205-2.8342-.0001-.0132c-.0021-.6855.4181-1.2322 1.0773-1.2349.6459-.0027 1.0739.536 1.076 1.226l.0001.0131zm4.1217 2.7426.8965-.0037-.0086-2.7949c-.002-.624.2558-1.1173 1.0556-1.1206.1494-.0006.312.0075.3956.0247l-.0025-.7954c-.0923-.0128-.1978-.0211-.3121-.0207-.6503.0027-.9963.3821-1.1185.6639l-.0308.0001-.0018-.5889-.8877.0037zm3.7342-4.6474-.6416.0027.0022.7207.6329-.0026.008 2.6103c.0029.9229.281 1.3348 1.3972 1.3302.1802-.0008.3559-.0191.4306-.0326l-.0022-.6899c-.0615.0046-.1318.0093-.2109.0096-.5405.0023-.7299-.1376-.7315-.6649l-.008-2.5664.9097-.0038-.0022-.7207-.9097.0038-.0035-1.14256-.8745.00364z"/><path d="m26.2344 20.3027v10.6641h3.5703c3.4844 0 4.7187-2.2734 4.7187-5.3438 0-3.1171-1.2812-5.3203-4.7187-5.3203zm1.6094 1.3828h1.8203c2.3515 0 3.1953 1.5704 3.1953 3.961 0 2.6484-1.0391 3.9375-3.1953 3.9375h-1.8203zm12.6546 8.2657h.0547v1.0156h1.5078v-5.6406c0-1.7969-1.3359-2.7266-3.1328-2.7266-2.1172 0-3.0703 1.125-3.1484 2.5391h1.4844c.0703-.7657.6328-1.2735 1.6172-1.2735 1.0312 0 1.6093.5469 1.6093 1.5469v.8047h-2.1172c-1.8906.0078-2.8984.9297-2.8984 2.3828 0 1.5234 1.0938 2.5 2.6875 2.5 1.2188 0 1.9531-.5078 2.3359-1.1484zm-1.875-.0938c-.8046 0-1.5546-.4297-1.5546-1.3359 0-.711.4687-1.211 1.5234-1.211h1.8984v.9297c0 .9532-.8047 1.6172-1.8672 1.6172zm5.3266 1.1094h1.5781v-8.2344h-1.5781zm-.1719-10.2422c0 .5313.4297.9297.961.9297.5312 0 .9609-.3984.9609-.9297 0-.5312-.4297-.9297-.9609-.9297-.5313 0-.961.3985-.961.9297zm7.0516 2.0078h-1.1406v1.2813h1.125v4.6406c0 1.6406.4921 2.375 2.4765 2.375.3203 0 .6328-.0313.7656-.0547v-1.2266c-.1093.0079-.2343.0157-.375.0157-.9609 0-1.2968-.25-1.2968-1.1875v-4.5625h1.6172v-1.2813h-1.6172v-2.0312h-1.5547zm7.9125-.1406c-2.3516 0-3.625 1.6719-3.625 3.8984v.6875c0 2.2891 1.2734 3.9297 3.625 3.9297 2.3437 0 3.6016-1.6406 3.6016-3.9297v-.6953c0-2.2265-1.2657-3.8906-3.6016-3.8906zm-.0078 1.2969c1.3359 0 2.0234 1.0547 2.0234 2.6328v.6328c0 1.5625-.6797 2.6406-2.0234 2.6406-1.336 0-2.0313-1.0859-2.0313-2.6406v-.6328c0-1.5703.6953-2.6328 2.0313-2.6328zm12.7 7.0781h1.8281l-2.7812-4.125 2.75-4.1094h-1.7813l-1.8906 3.0156h-.0156l-1.8907-3.0156h-1.8672l2.7188 4.1094-2.7578 4.125h1.75l1.9453-3.0078h.0234zm2.8656-10.6641v10.6641h3.5703c3.4844 0 4.7188-2.2734 4.7188-5.3438 0-3.1171-1.2813-5.3203-4.7188-5.3203zm1.6094 1.3828h1.8203c2.3515 0 3.1953 1.5704 3.1953 3.961 0 2.6484-1.0391 3.9375-3.1953 3.9375h-1.8203zm12.6547 8.2657h.0547v1.0156h1.5078v-5.6406c0-1.7969-1.336-2.7266-3.1328-2.7266-2.1172 0-3.0704 1.125-3.1485 2.5391h1.4844c.0703-.7657.6328-1.2735 1.6172-1.2735 1.0312 0 1.6094.5469 1.6094 1.5469v.8047h-2.1172c-1.8907.0078-2.8985.9297-2.8985 2.3828 0 1.5234 1.0938 2.5 2.6875 2.5 1.2188 0 1.9532-.5078 2.336-1.1484zm-1.875-.0938c-.8047 0-1.5547-.4297-1.5547-1.3359 0-.711.4687-1.211 1.5234-1.211h1.8985v.9297c0 .9532-.8047 1.6172-1.8672 1.6172zm5.3265 1.1094h1.5782v-8.2344h-1.5782zm-.1718-10.2422c0 .5313.4296.9297.9609.9297.5312 0 .9609-.3984.9609-.9297 0-.5312-.4297-.9297-.9609-.9297-.5313 0-.9609.3985-.9609.9297z"/></g></g></svg>

<svg width="120" height="40" viewBox="0 0 120 40" fill="none" xmlns="http://www.w3.org/2000/svg">
<g clip-path="url(#clip0)">
<path d="M110.135 0.00013H9.53468C9.16798 0.00013 8.80568 0.00013 8.43995 0.00213C8.1338 0.00413 7.83009 0.00994 7.521 0.01483C6.84951 0.0227318 6.17961 0.0818063 5.5171 0.19154C4.85552 0.303663 4.21467 0.515046 3.61622 0.81854C3.0185 1.1246 2.47235 1.5223 1.99757 1.9972C1.5203 2.47077 1.12246 3.01815 0.81935 3.61829C0.5154 4.21724 0.304641 4.85907 0.19435 5.52161C0.0830109 6.18332 0.0230984 6.85265 0.01515 7.52361C0.00587 7.83021 0.00489 8.13783 0 8.44447V31.5587C0.00489 31.8692 0.00587 32.17 0.01515 32.4806C0.0231008 33.1516 0.0830134 33.8209 0.19435 34.4825C0.304336 35.1455 0.515108 35.7877 0.81935 36.3868C1.12233 36.985 1.52022 37.5302 1.99757 38.0011C2.47054 38.4781 3.01705 38.8761 3.61622 39.1798C4.21467 39.4841 4.85545 39.6968 5.5171 39.8106C6.17972 39.9195 6.84956 39.9786 7.521 39.9874C7.83009 39.9942 8.1338 39.9981 8.43995 39.9981C8.80567 40.0001 9.168 40.0001 9.53468 40.0001H110.135C110.494 40.0001 110.859 40.0001 111.219 39.9981C111.523 39.9981 111.836 39.9942 112.141 39.9874C112.811 39.9791 113.479 39.92 114.141 39.8106C114.804 39.696 115.448 39.4834 116.049 39.1798C116.647 38.8759 117.193 38.478 117.666 38.0011C118.142 37.5284 118.541 36.9836 118.848 36.3868C119.15 35.7872 119.358 35.1451 119.467 34.4825C119.578 33.8208 119.64 33.1516 119.652 32.4806C119.656 32.17 119.656 31.8692 119.656 31.5587C119.664 31.1954 119.664 30.8341 119.664 30.4649V9.53626C119.664 9.17005 119.664 8.80677 119.656 8.44447C119.656 8.13783 119.656 7.83021 119.652 7.52357C119.64 6.85255 119.578 6.18337 119.467 5.52157C119.358 4.85941 119.149 4.21763 118.848 3.61825C118.23 2.41533 117.252 1.43616 116.049 0.81845C115.448 0.515697 114.804 0.30437 114.141 0.19145C113.48 0.0812328 112.811 0.0221378 112.141 0.01469C111.836 0.00981 111.523 0.00395 111.219 0.002C110.859 0 110.494 0 110.135 0V0.00013Z" fill="#FFD131"/>
<path d="M8.44291 39.125C8.13823 39.125 7.84091 39.1211 7.53862 39.1143C6.91241 39.1061 6.28765 39.0516 5.66948 38.9512C5.09307 38.8519 4.53469 38.6673 4.01274 38.4033C3.49559 38.1415 3.0239 37.7983 2.61574 37.3867C2.20168 36.98 1.85696 36.5082 1.59523 35.9902C1.33062 35.4688 1.1475 34.9099 1.05223 34.333C0.949358 33.7131 0.893698 33.0863 0.885734 32.458C0.879394 32.2471 0.871094 31.5449 0.871094 31.5449V8.44434C0.871094 8.44434 0.879934 7.75293 0.885784 7.5498C0.89341 6.92248 0.948746 6.29665 1.05131 5.67773C1.14675 5.09925 1.33002 4.53875 1.59477 4.01563C1.85554 3.49794 2.19835 3.02586 2.60991 2.61768C3.02102 2.20562 3.49422 1.8606 4.01225 1.59521C4.533 1.33209 5.09033 1.14873 5.66557 1.05127C6.28577 0.949836 6.91269 0.894996 7.54108 0.88721L8.4434 0.875H111.212L112.125 0.8877C112.748 0.895099 113.369 0.94945 113.983 1.05029C114.565 1.14898 115.128 1.33362 115.654 1.59814C116.692 2.13299 117.537 2.97916 118.069 4.01807C118.33 4.53758 118.51 5.09351 118.605 5.66699C118.708 6.29099 118.766 6.92174 118.778 7.5542C118.781 7.8374 118.781 8.1416 118.781 8.44434C118.789 8.81934 118.789 9.17627 118.789 9.53613V30.4648C118.789 30.8281 118.789 31.1826 118.781 31.54C118.781 31.8652 118.781 32.1631 118.777 32.4697C118.766 33.0909 118.709 33.7104 118.606 34.3232C118.513 34.9043 118.331 35.4675 118.066 35.9932C117.803 36.5056 117.46 36.9733 117.051 37.3789C116.642 37.7927 116.17 38.1379 115.651 38.4014C115.126 38.6674 114.564 38.8527 113.983 38.9512C113.365 39.0522 112.741 39.1067 112.114 39.1143C111.821 39.1211 111.515 39.125 111.217 39.125L110.133 39.127L8.44291 39.125Z" fill="white"/>
<path d="M30.3891 15.2687L30.3706 9.27018L29.4653 9.27394L29.4731 11.7876L26.6166 11.7995L26.6089 9.28582L25.7036 9.28958L25.7222 15.2881L26.6274 15.2843L26.6191 12.5817L29.4755 12.5698L29.4838 15.2724L30.3891 15.2687ZM33.5605 10.5445C32.2378 10.55 31.5244 11.4934 31.5283 12.7459L31.5295 13.1326C31.5335 14.4202 32.2526 15.34 33.5754 15.3345C34.8937 15.3291 35.5984 14.4033 35.5944 13.1157L35.5932 12.7246C35.5893 11.4721 34.8745 10.5391 33.5605 10.5445ZM33.5584 11.274C34.3099 11.2709 34.6984 11.8626 34.7012 12.7503L34.7023 13.1062C34.705 13.9851 34.3245 14.5931 33.5687 14.5963C32.8172 14.5994 32.4242 13.9902 32.4215 13.1157L32.4204 12.7597C32.4177 11.8764 32.807 11.2772 33.5584 11.274ZM42.4904 10.5865L41.5983 10.5902L40.8096 14.1751L40.7744 14.1752L39.7702 10.5978L38.9265 10.6013L37.9488 14.187L37.9092 14.1871L37.0984 10.6089L36.2019 10.6126L37.4203 15.2395L38.3475 15.2356L39.3387 11.751L39.3607 11.7509L40.3734 15.2272L41.3006 15.2233L42.4904 10.5865ZM45.3996 10.5744L44.758 10.5771L44.7602 11.2978L45.393 11.2952L45.4011 13.9055C45.4039 14.8283 45.682 15.2403 46.7983 15.2356C46.9784 15.2349 47.1542 15.2166 47.2288 15.2031L47.2267 14.5131C47.1652 14.5178 47.0949 14.5225 47.0158 14.5228C46.4753 14.5251 46.2859 14.3852 46.2842 13.8579L46.2763 11.2915L47.186 11.2877L47.1837 10.567L46.2741 10.5708L46.2705 9.42821L45.396 9.43184L45.3996 10.5744ZM50.0751 10.4759C48.7523 10.4814 48.0389 11.4248 48.0428 12.6772L48.044 13.0639C48.048 14.3515 48.7671 15.2714 50.0899 15.2659C51.4082 15.2604 52.1129 14.3346 52.1089 13.047L52.1077 12.6559C52.1038 11.4035 51.389 10.4704 50.0751 10.4759ZM50.0729 11.2054C50.8244 11.2023 51.2129 11.7939 51.2157 12.6816L51.2168 13.0376C51.2195 13.9165 50.839 14.5245 50.0832 14.5276C49.3317 14.5308 48.9387 13.9215 48.936 13.047L48.9349 12.6911C48.9322 11.8078 49.3215 11.2085 50.0729 11.2054ZM54.8115 13.0446C54.8155 14.319 55.539 15.2432 56.7871 15.2381C57.8593 15.2336 58.4948 14.6772 58.6239 13.8022L57.7758 13.8057C57.7022 14.1708 57.3956 14.4797 56.8419 14.482C56.1475 14.4848 55.7063 13.9242 55.7036 13.0453L55.7023 12.6322C55.6996 11.7445 56.1154 11.2022 56.8273 11.1993C57.3019 11.1973 57.6502 11.543 57.7393 11.9338L58.5918 11.9302C58.5499 11.1614 57.8797 10.4434 56.7723 10.448C55.5374 10.4532 54.8063 11.3527 54.8102 12.6139L54.8115 13.0446ZM61.4656 10.4285C60.1428 10.434 59.4294 11.3774 59.4333 12.6299L59.4345 13.0166C59.4385 14.3042 60.1576 15.224 61.4804 15.2185C62.7987 15.2131 63.5034 14.2873 63.4994 12.9997L63.4982 12.6086C63.4943 11.3561 62.7795 10.4231 61.4656 10.4285ZM61.4634 11.158C62.2149 11.1549 62.6034 11.7466 62.6062 12.6343L62.6073 12.9902C62.61 13.8691 62.2296 14.4771 61.4737 14.4803C60.7223 14.4834 60.3293 13.8742 60.3266 12.9997L60.3255 12.6437C60.3227 11.7604 60.712 11.1612 61.4634 11.158ZM64.6046 15.1265L65.4879 15.1228L65.4793 12.3367C65.4774 11.717 65.8142 11.1971 66.5437 11.194C67.1589 11.1915 67.6038 11.55 67.6062 12.3059L67.6149 15.1139L68.4981 15.1103L68.489 12.1352C68.4855 11.0058 67.7937 10.4066 66.8445 10.4106C66.0842 10.4137 65.6592 10.8198 65.4975 11.1237L65.4668 11.1238L65.4648 10.491L64.5903 10.4946L64.6046 15.1265ZM70.6646 15.1013L71.6402 15.0972L73.2694 10.4586L72.3686 10.4623L71.1669 14.1104L71.1362 14.1105L69.9999 10.4722L69.0595 10.4761L70.6646 15.1013ZM75.7273 15.1593C76.826 15.1548 77.4305 14.5238 77.5819 13.7673L76.725 13.7709C76.5944 14.1845 76.2525 14.4408 75.7427 14.4429C75.044 14.4458 74.6116 13.8939 74.6091 13.0722L74.6088 12.9755L77.6366 12.9629L77.6352 12.5234C77.6312 11.2315 76.9034 10.3644 75.6774 10.3695C74.4557 10.3745 73.72 11.2257 73.724 12.4958L73.7255 12.9835C73.7297 14.3327 74.5013 15.1644 75.7273 15.1593ZM74.6068 12.3251L74.6067 12.3119C74.6046 11.6264 75.0248 11.0797 75.684 11.077C76.3299 11.0743 76.7579 11.613 76.76 12.303L76.7601 12.3161L74.6068 12.3251ZM78.7285 15.0677L79.625 15.064L79.6164 12.2691C79.6144 11.6451 79.8722 11.1518 80.672 11.1485C80.8214 11.1479 80.984 11.156 81.0676 11.1732L81.0651 10.3778C80.9728 10.365 80.8673 10.3567 80.753 10.3571C80.1027 10.3598 79.7567 10.7392 79.6345 11.021L79.6037 11.0211L79.6019 10.4322L78.7142 10.4359L78.7285 15.0677ZM82.4627 10.4203L81.8211 10.423L81.8233 11.1437L82.4562 11.1411L82.4642 13.7514C82.4671 14.6743 82.7452 15.0862 83.8614 15.0816C84.0416 15.0808 84.2173 15.0625 84.292 15.049L84.2898 14.3591C84.2283 14.3637 84.158 14.3684 84.0789 14.3687C83.5384 14.371 83.349 14.2311 83.3474 13.7038L83.3394 11.1374L84.2491 11.1336L84.2469 10.4129L83.3372 10.4167L83.3337 9.27414L82.4592 9.27778L82.4627 10.4203Z" fill="black"/>
<path d="M26.2344 20.3027V30.9668H29.8047C33.2891 30.9668 34.5234 28.6934 34.5234 25.623C34.5234 22.5059 33.2422 20.3027 29.8047 20.3027H26.2344ZM27.8438 21.6855H29.6641C32.0156 21.6855 32.8594 23.2559 32.8594 25.6465C32.8594 28.2949 31.8203 29.584 29.6641 29.584H27.8438V21.6855ZM40.4984 29.9512H40.5531V30.9668H42.0609V25.3262C42.0609 23.5293 40.725 22.5996 38.9281 22.5996C36.8109 22.5996 35.8578 23.7246 35.7797 25.1387H37.2641C37.3344 24.373 37.8969 23.8652 38.8813 23.8652C39.9125 23.8652 40.4906 24.4121 40.4906 25.4121V26.2168H38.3734C36.4828 26.2246 35.475 27.1465 35.475 28.5996C35.475 30.123 36.5688 31.0996 38.1625 31.0996C39.3813 31.0996 40.1156 30.5918 40.4984 29.9512ZM38.6234 29.8574C37.8188 29.8574 37.0688 29.4277 37.0688 28.5215C37.0688 27.8105 37.5375 27.3105 38.5922 27.3105H40.4906V28.2402C40.4906 29.1934 39.6859 29.8574 38.6234 29.8574ZM43.95 30.9668H45.5281V22.7324H43.95V30.9668ZM43.7781 20.7246C43.7781 21.2559 44.2078 21.6543 44.7391 21.6543C45.2703 21.6543 45.7 21.2559 45.7 20.7246C45.7 20.1934 45.2703 19.7949 44.7391 19.7949C44.2078 19.7949 43.7781 20.1934 43.7781 20.7246ZM50.8297 22.7324H49.6891V24.0137H50.8141V28.6543C50.8141 30.2949 51.3062 31.0293 53.2906 31.0293C53.6109 31.0293 53.9234 30.998 54.0562 30.9746V29.748C53.9469 29.7559 53.8219 29.7637 53.6812 29.7637C52.7203 29.7637 52.3844 29.5137 52.3844 28.5762V24.0137H54.0016V22.7324H52.3844V20.7012H50.8297V22.7324ZM58.7422 22.5918C56.3906 22.5918 55.1172 24.2637 55.1172 26.4902V27.1777C55.1172 29.4668 56.3906 31.1074 58.7422 31.1074C61.0859 31.1074 62.3438 29.4668 62.3438 27.1777V26.4824C62.3438 24.2559 61.0781 22.5918 58.7422 22.5918ZM58.7344 23.8887C60.0703 23.8887 60.7578 24.9434 60.7578 26.5215V27.1543C60.7578 28.7168 60.0781 29.7949 58.7344 29.7949C57.3984 29.7949 56.7031 28.709 56.7031 27.1543V26.5215C56.7031 24.9512 57.3984 23.8887 58.7344 23.8887ZM71.4344 30.9668H73.2625L70.4813 26.8418L73.2313 22.7324H71.45L69.5594 25.748H69.5438L67.6531 22.7324H65.7859L68.5047 26.8418L65.7469 30.9668H67.4969L69.4422 27.959H69.4656L71.4344 30.9668ZM74.3 20.3027V30.9668H77.8703C81.3547 30.9668 82.5891 28.6934 82.5891 25.623C82.5891 22.5059 81.3078 20.3027 77.8703 20.3027H74.3ZM75.9094 21.6855H77.7297C80.0812 21.6855 80.925 23.2559 80.925 25.6465C80.925 28.2949 79.8859 29.584 77.7297 29.584H75.9094V21.6855ZM88.5641 29.9512H88.6188V30.9668H90.1266V25.3262C90.1266 23.5293 88.7906 22.5996 86.9938 22.5996C84.8766 22.5996 83.9234 23.7246 83.8453 25.1387H85.3297C85.4 24.373 85.9625 23.8652 86.9469 23.8652C87.9781 23.8652 88.5563 24.4121 88.5563 25.4121V26.2168H86.4391C84.5484 26.2246 83.5406 27.1465 83.5406 28.5996C83.5406 30.123 84.6344 31.0996 86.2281 31.0996C87.4469 31.0996 88.1813 30.5918 88.5641 29.9512ZM86.6891 29.8574C85.8844 29.8574 85.1344 29.4277 85.1344 28.5215C85.1344 27.8105 85.6031 27.3105 86.6578 27.3105H88.5563V28.2402C88.5563 29.1934 87.7516 29.8574 86.6891 29.8574ZM92.0156 30.9668H93.5938V22.7324H92.0156V30.9668ZM91.8438 20.7246C91.8438 21.2559 92.2734 21.6543 92.8047 21.6543C93.3359 21.6543 93.7656 21.2559 93.7656 20.7246C93.7656 20.1934 93.3359 19.7949 92.8047 19.7949C92.2734 19.7949 91.8438 20.1934 91.8438 20.7246Z" fill="black"/>
</g>
<defs>
<clipPath id="clip0">
<rect width="119.664" height="40" fill="white"/>
</clipPath>
</defs>
</svg>
